dist/img/bg/notify_bg.svg

<svg width="246" height="125" viewBox="0 0 246 125" fill="none" xmlns="http://www.w3.org/2000/svg">
<path fill-rule="evenodd" clip-rule="evenodd" d="M18 0C14.6863 0 12 2.68629 12 6V18.9832C8.14396 26.1143 5.1721 28.2615 0.910527 31.3406C0.613528 31.5552 0.310264 31.7744 0 32C0.269532 32.196 0.533988 32.3874 0.793819 32.5755C5.11505 35.7031 8.15721 37.905 12 45.0082V119C12 122.314 14.6863 125 18 125H240C243.314 125 246 122.314 246 119V6C246 2.68629 243.314 0 240 0H18Z" fill="white"/>
</svg>

<svg width="246" height="125" fill="none" xmlns="http://www.w3.org/2000/svg"><path fill-rule="evenodd" clip-rule="evenodd" d="M18 0a6 6 0 00-6 6v12.983C8.144 26.114 5.172 28.262.91 31.341c-.296.214-.6.433-.91.659l.794.575C5.115 35.703 8.157 37.905 12 45.008V119a6 6 0 006 6h222a6 6 0 006-6V6a6 6 0 00-6-6H18z" fill="#fff"/></svg>
